markup/src/img/grid-img-10.svg

<svg width="77" height="77" viewBox="0 0 77 77" fill="none" xmlns="http://www.w3.org/2000/svg">
<path d="M38.4999 29.1456C33.3419 29.1456 29.1456 33.342 29.1456 38.4999C29.1456 43.6579 33.3419 47.8542 38.4999 47.8542C43.6578 47.8542 47.8541 43.6579 47.8541 38.4999C47.8541 33.342 43.6578 29.1456 38.4999 29.1456ZM38.4999 45.448C34.6687 45.448 31.5519 42.331 31.5519 38.4999C31.5519 34.6689 34.6688 31.5519 38.4999 31.5519C42.3309 31.5519 45.4479 34.6689 45.4479 38.4999C45.4479 42.331 42.3311 45.448 38.4999 45.448ZM7.97068 18.6177C6.73402 18.6177 5.72791 19.6237 5.72791 20.8603C5.72791 22.097 6.73402 23.1031 7.97068 23.1031C9.20734 23.1031 10.2134 22.097 10.2134 20.8603C10.2134 19.6237 9.20734 18.6177 7.97068 18.6177ZM7.97068 21.024C7.87909 21.024 7.8072 20.9521 7.8072 20.8603C7.8072 20.7688 7.87909 20.6969 7.97068 20.6969C8.06227 20.6969 8.13415 20.7688 8.13415 20.8603C8.13415 20.9521 8.06227 21.024 7.97068 21.024ZM74.0816 0H59.6455C58.0363 0 56.7272 1.30915 56.7272 2.91817V23.6346C56.7272 25.2436 58.0363 26.5528 59.6455 26.5528H67.4623V34.2323H58.0721C57.8951 34.0714 57.6695 33.9614 57.4169 33.929L52.9554 33.3581C52.7806 32.8665 52.5809 32.3842 52.3573 31.9139L55.1082 28.3555C55.4785 27.8765 55.4353 27.197 55.0072 26.7689L50.2308 21.9925C49.8023 21.5643 49.123 21.5212 48.6441 21.8914L45.0858 24.6424C44.6155 24.4189 44.133 24.2192 43.6416 24.0443L43.0707 19.5829C42.9937 18.9824 42.4827 18.5326 41.8772 18.5326H35.1226C34.5172 18.5326 34.0061 18.9824 33.9291 19.5829L33.3582 24.0443C32.8667 24.219 32.3843 24.4187 31.914 24.6424L28.3556 21.8914C27.8768 21.5212 27.1972 21.5643 26.769 21.9925L21.9926 26.7689C21.5644 27.197 21.5213 27.8765 21.8915 28.3555L24.6425 31.9139C24.419 32.3842 24.2191 32.8666 24.0444 33.3581L19.5829 33.929C19.3301 33.9613 19.1047 34.0714 18.9277 34.2323H9.53759V26.5529H13.4389C14.8187 26.5529 15.9414 25.4303 15.9414 24.0504V2.5025C15.9414 1.12266 14.8187 0 13.4389 0H2.50249C1.12266 0 0 1.12266 0 2.5025V24.0504C0 25.4303 1.12266 26.5529 2.50249 26.5529H7.13135V35.4356C7.13135 36.1 7.67005 36.6387 8.33447 36.6387H18.5329V40.3612H8.33447C7.67005 40.3612 7.13135 40.8999 7.13135 41.5643V56.2676H1.20312C0.538697 56.2676 0 56.8063 0 57.4708V70.5084C0 71.1728 0.538697 71.7115 1.20312 71.7115H8.73285V72.3931L6.7059 75.0705C6.43023 75.4346 6.38436 75.9235 6.58784 76.3324C6.79117 76.7413 7.20835 76.9999 7.66508 76.9999H16.2627C16.7195 76.9999 17.1368 76.7412 17.34 76.3324C17.5435 75.9235 17.4976 75.4346 17.2219 75.0705L15.1948 72.3931V71.7115H22.7247C23.3891 71.7115 23.9278 71.1728 23.9278 70.5084V57.4708C23.9278 56.8063 23.3891 56.2676 22.7247 56.2676H9.53759V42.7674H18.9277C19.1047 42.9283 19.3302 43.0384 19.5831 43.0709L24.0445 43.6418C24.2193 44.1331 24.419 44.6156 24.6428 45.0858L21.8917 48.6441C21.5214 49.1232 21.5646 49.8027 21.9928 50.2308L26.7691 55.0072C27.1976 55.4354 27.8769 55.4787 28.3558 55.1083L31.9141 52.3573C32.3844 52.5808 32.8669 52.7805 33.3583 52.9554L33.9292 57.4168C34.0062 58.0173 34.5172 58.4671 35.1227 58.4671H41.8773C42.4827 58.4671 42.9938 58.0173 43.0708 57.4168L43.6417 52.9554C44.1332 52.7807 44.6156 52.581 45.0859 52.3573L48.6443 55.1083C49.1231 55.4787 49.8027 55.4354 50.2309 55.0072L55.0073 50.2308C55.4355 49.8027 55.4786 49.1232 55.1084 48.6441L52.3573 45.0858C52.5809 44.6156 52.7806 44.1331 52.9555 43.6418L57.417 43.0709C57.67 43.0386 57.8954 42.9285 58.0724 42.7674H67.4625V56.2676H55.3947C54.3827 56.2676 53.5592 57.091 53.5592 58.103V68.7896C53.5339 68.838 53.51 68.8875 53.4888 68.9386L51.2071 74.4638C50.9689 75.0407 51.0254 75.6602 51.362 76.1634C51.7071 76.6794 52.2979 77 52.9036 77H75.1581C75.7638 77 76.3546 76.6794 76.6997 76.1634C77.0363 75.6602 77.0928 75.0407 76.8546 74.4638L74.5729 68.9386C74.5728 68.9385 74.5728 68.9383 74.5728 68.9383C74.5516 68.8872 74.5278 68.8379 74.5025 68.7894V58.103C74.5025 57.091 73.679 56.2676 72.667 56.2676H69.8684V41.5643C69.8684 40.8999 69.3297 40.3612 68.6653 40.3612H58.4669V36.6387H68.6653C69.3297 36.6387 69.8684 36.1 69.8684 35.4356V26.5529H74.0816C75.6906 26.5529 76.9998 25.2438 76.9998 23.6347V2.91817C76.9998 1.30915 75.6906 0 74.0816 0ZM2.40624 24.0504V2.5025C2.40624 2.45211 2.45211 2.40625 2.50249 2.40625H13.4389C13.4892 2.40625 13.5351 2.45211 13.5351 2.5025V24.0504C13.5351 24.1008 13.4892 24.1467 13.4389 24.1467H2.50249C2.45211 24.1467 2.40624 24.1008 2.40624 24.0504ZM13.0325 73.5234L13.8428 74.5936H10.085L10.8953 73.5234C11.0537 73.3144 11.1392 73.0593 11.1392 72.7972V71.7115H12.7887V72.7972C12.7886 73.0593 12.8741 73.3144 13.0325 73.5234ZM21.5216 69.3053H2.40624V58.6739H21.5216V69.3053ZM53.7568 74.5936L55.5671 70.21H72.4947L74.3049 74.5936H53.7568ZM72.0964 67.8038H55.9654V58.6739H72.0964V67.8038ZM56.0608 40.8183L51.8956 41.3513C51.4235 41.4118 51.0314 41.7448 50.8955 42.2009C50.6425 43.0488 50.3017 43.8717 49.882 44.6473C49.6554 45.066 49.6972 45.5791 49.9883 45.9558L52.5568 49.278L49.278 52.5568L45.9558 49.9882C45.5787 49.6968 45.0656 49.6553 44.6472 49.8821C43.872 50.3017 43.0489 50.6426 42.201 50.8954C41.745 51.0314 41.4119 51.4234 41.3514 51.8955L40.8184 56.0606H36.1816L35.6486 51.8955C35.5882 51.4233 35.2551 51.0314 34.7991 50.8954C33.9512 50.6424 33.1282 50.3017 32.3528 49.8821C31.9343 49.6553 31.4213 49.6969 31.0443 49.9882L27.722 52.5568L24.4432 49.278L27.0117 45.9558C27.303 45.5791 27.3447 45.066 27.118 44.6473C26.6983 43.8719 26.3574 43.0488 26.1046 42.2009C25.9686 41.7448 25.5764 41.4118 25.1045 41.3513L20.9393 40.8183V36.1815L25.1045 35.6485C25.5767 35.5881 25.9686 35.255 26.1046 34.799C26.3575 33.9511 26.6983 33.1281 27.1179 32.3527C27.3447 31.934 27.3029 31.4211 27.0117 31.0442L24.4432 27.7219L27.722 24.4431L31.0443 27.0116C31.4213 27.3029 31.9343 27.3446 32.3528 27.1178C33.1281 26.6982 33.9512 26.3573 34.7991 26.1045C35.2551 25.9685 35.5882 25.5764 35.6486 25.1044L36.1816 20.9393H40.8184L41.3514 25.1044C41.4119 25.5766 41.745 25.9685 42.201 26.1045C43.0489 26.3574 43.8718 26.6982 44.6472 27.1178C45.0656 27.3446 45.5787 27.3028 45.9558 27.0116L49.278 24.4431L52.5568 27.7219L49.9883 31.0442C49.697 31.4211 49.6554 31.934 49.8822 32.3529C50.3016 33.1277 50.6427 33.9506 50.8955 34.799C51.0314 35.255 51.4235 35.5881 51.8956 35.6485L56.0608 36.1815V40.8183ZM74.5935 23.6346C74.5935 23.9122 74.3591 24.1465 74.0816 24.1465H59.6455C59.3679 24.1465 59.1334 23.9121 59.1334 23.6346V2.91817C59.1334 2.64055 59.368 2.40625 59.6455 2.40625H74.0816C74.3592 2.40625 74.5935 2.6407 74.5935 2.91817V23.6346ZM66.8635 18.6177C65.6268 18.6177 64.6207 19.6237 64.6207 20.8603C64.6207 22.097 65.6268 23.1031 66.8635 23.1031C68.1001 23.1031 69.1062 22.097 69.1062 20.8603C69.1062 19.6237 68.1 18.6177 66.8635 18.6177ZM66.8635 21.024C66.7719 21.024 66.7 20.9521 66.7 20.8603C66.7 20.7688 66.7719 20.6969 66.8635 20.6969C66.955 20.6969 67.0269 20.7688 67.0269 20.8603C67.0269 20.9521 66.955 21.024 66.8635 21.024Z" fill="#40AC6C"/>
</svg>

<svg width="77" height="77" fill="none" xmlns="http://www.w3.org/2000/svg"><path d="M38.5 29.146c-5.158 0-9.354 4.196-9.354 9.354 0 5.158 4.196 9.354 9.354 9.354 5.158 0 9.354-4.196 9.354-9.354 0-5.158-4.196-9.354-9.354-9.354zm0 16.302a6.956 6.956 0 0 1-6.948-6.948 6.956 6.956 0 0 1 6.948-6.948 6.956 6.956 0 0 1 6.948 6.948 6.956 6.956 0 0 1-6.948 6.948zM7.97 18.618a2.245 2.245 0 0 0-2.242 2.242 2.245 2.245 0 0 0 2.243 2.243 2.245 2.245 0 0 0 2.242-2.243 2.245 2.245 0 0 0-2.242-2.242zm0 2.406a.162.162 0 0 1-.163-.164c0-.091.072-.163.164-.163.091 0 .163.072.163.163a.162.162 0 0 1-.163.164zM74.083 0H59.646a2.922 2.922 0 0 0-2.919 2.918v20.717a2.922 2.922 0 0 0 2.919 2.918h7.816v7.68h-9.39a1.199 1.199 0 0 0-.655-.304l-4.462-.57a15.31 15.31 0 0 0-.598-1.445l2.751-3.559a1.203 1.203 0 0 0-.1-1.586l-4.777-4.776a1.203 1.203 0 0 0-1.587-.102l-3.558 2.751c-.47-.223-.953-.423-1.444-.598l-.571-4.461a1.203 1.203 0 0 0-1.194-1.05h-6.754c-.606 0-1.117.45-1.194 1.05l-.57 4.461a15.46 15.46 0 0 0-1.445.598l-3.558-2.75a1.203 1.203 0 0 0-1.587.1l-4.776 4.777a1.203 1.203 0 0 0-.101 1.587l2.75 3.558c-.223.47-.423.953-.598 1.444l-4.461.571a1.197 1.197 0 0 0-.655.303h-9.39v-7.68h3.9a2.505 2.505 0 0 0 2.503-2.502V2.503A2.505 2.505 0 0 0 13.44 0H2.502A2.505 2.505 0 0 0 0 2.502V24.05a2.505 2.505 0 0 0 2.502 2.503h4.63v8.883c0 .664.538 1.203 1.202 1.203h10.199v3.722H8.334c-.664 0-1.203.539-1.203 1.203v14.704H1.203C.54 56.268 0 56.806 0 57.47v13.037c0 .665.539 1.204 1.203 1.204h7.53v.681L6.706 75.07a1.203 1.203 0 0 0 .96 1.93h8.597a1.203 1.203 0 0 0 .959-1.93l-2.027-2.677v-.681h7.53c.664 0 1.203-.54 1.203-1.204V57.471c0-.665-.539-1.203-1.203-1.203H9.538v-13.5h9.39a1.2 1.2 0 0 0 .655.303l4.462.57c.174.492.374.975.598 1.445l-2.751 3.558c-.37.48-.327 1.159.1 1.587l4.777 4.776a1.203 1.203 0 0 0 1.587.101l3.558-2.75c.47.223.953.423 1.444.597l.571 4.462c.077.6.588 1.05 1.194 1.05h6.754c.606 0 1.117-.45 1.194-1.05l.57-4.462c.492-.174.975-.374 1.445-.598l3.558 2.751c.48.37 1.159.327 1.587-.1l4.776-4.777a1.203 1.203 0 0 0 .101-1.587l-2.75-3.558c.223-.47.423-.953.598-1.444l4.461-.571c.253-.032.478-.142.655-.304h9.39v13.5H55.396a1.838 1.838 0 0 0-1.836 1.836V68.79a1.699 1.699 0 0 0-.07.149l-2.282 5.525a1.785 1.785 0 0 0 .155 1.7c.345.515.936.836 1.542.836h22.254c.606 0 1.197-.32 1.542-.837a1.785 1.785 0 0 0 .155-1.7l-2.282-5.524a1.877 1.877 0 0 0-.07-.15V58.103a1.838 1.838 0 0 0-1.836-1.835h-2.799V41.564c0-.664-.538-1.203-1.203-1.203H58.467V36.64h10.198c.665 0 1.203-.539 1.203-1.203v-8.883h4.214A2.922 2.922 0 0 0 77 23.635V2.918A2.922 2.922 0 0 0 74.082 0zM2.406 24.05V2.503a.1.1 0 0 1 .096-.097H13.44a.1.1 0 0 1 .096.096V24.05a.1.1 0 0 1-.096.097H2.502a.1.1 0 0 1-.096-.097zm10.627 49.473l.81 1.07h-3.758l.81-1.07c.159-.209.244-.464.244-.726v-1.085h1.65v1.085c0 .262.085.517.244.726zm8.489-4.218H2.406V58.674h19.116v10.631zm32.235 5.289l1.81-4.384h16.928l1.81 4.384H53.757zm18.34-6.79H55.964v-9.13h16.131v9.13zM56.06 40.818l-4.165.533a1.2 1.2 0 0 0-1 .85 12.9 12.9 0 0 1-1.014 2.446c-.227.419-.185.932.106 1.309l2.569 3.322-3.279 3.279-3.322-2.569a1.203 1.203 0 0 0-1.309-.106c-.775.42-1.598.76-2.446 1.013-.456.136-.79.528-.85 1l-.533 4.166h-4.636l-.533-4.166a1.203 1.203 0 0 0-.85-1 12.899 12.899 0 0 1-2.446-1.013 1.203 1.203 0 0 0-1.309.106l-3.322 2.569-3.279-3.279 2.569-3.322c.291-.377.333-.89.106-1.309a12.88 12.88 0 0 1-1.013-2.446 1.203 1.203 0 0 0-1-.85l-4.166-.533v-4.636l4.166-.534c.472-.06.864-.393 1-.849.253-.848.593-1.67 1.013-2.446a1.203 1.203 0 0 0-.106-1.309l-2.569-3.322 3.279-3.279 3.322 2.569c.377.29.89.333 1.309.106.775-.42 1.598-.76 2.446-1.013.456-.137.79-.529.85-1l.533-4.166h4.636l.533 4.165c.06.473.394.864.85 1 .848.253 1.67.594 2.446 1.014.419.227.932.185 1.309-.106l3.322-2.569 3.279 3.279-2.569 3.322c-.291.377-.333.89-.106 1.309.42.775.76 1.598 1.014 2.446a1.2 1.2 0 0 0 1 .85l4.165.532v4.637zm18.533-17.183a.519.519 0 0 1-.512.511H59.646a.519.519 0 0 1-.513-.511V2.918a.52.52 0 0 1 .512-.512h14.437a.52.52 0 0 1 .512.512v20.717zm-7.73-5.017a2.245 2.245 0 0 0-2.243 2.242 2.245 2.245 0 0 0 2.243 2.243 2.245 2.245 0 0 0 2.242-2.243 2.245 2.245 0 0 0-2.242-2.242zm0 2.406a.162.162 0 0 1-.164-.164c0-.091.072-.163.163-.163.092 0 .164.072.164.163a.162.162 0 0 1-.163.164z" fill="#40AC6C"/></svg>
